X:1
T:Richmond Park, 10.9.10.9 D
T:Richmond Park, 10.9.10.9 D
T:William Howard Doane, 1884
T:Public Domain Courtesy of the Cyber Hymnal™
C:William Howard Doane, 1884
Z:Public Domain
Z:Courtesy of the Cyber Hymnal™
%%score 1 ( 2 3 )
L:1/8
Q:1/4=105
M:9/8
K:Ab
V:1 treble 
V:2 bass 
V:3 bass 
V:1
 [Ec][Fd][Ec] | [Ec]3 [EA]3 [EB][Ec][DB] | [DB]3 [CA]2 z [DF][EG][EA] | [EB]3 [Ec]3 [=DB][DF][FA] | %4
 ([E-G]3 [EB]2) z | [Ec][Fd][Ec] | [Ec]3 [EA]3 [Ec][Fd][Fc] | [Fc]3 [FB]2 z [GB][Ac][GB] | %8
 [Ae][Ed][Ec] [Ec]3- [Ec]2 [EB] | [EA]3- [EA]2 z | [EB][Ec][Ed] | [Ed]3 [EG]3 [EA][EB][Ec] | %12
 [Ec]3 [EA]2 z [Ac][Ad][Ae] | [Af]3 [Ae]2 z [Ee][Ed][Ec] | ([E-c]3 [EB]2) z | [Ec][Fd][Ec] | %16
 [Ec]3 [EA]3 [Ec][Fd][Fc] | [Fc]3 [FB]2 z [GB][Ac][GB] | [Ae][Ed][Ec] [Ec]3- [Ec]2 [EB] | %19
 [EA]3- [EA]2 z |] %20
V:2
 [A,,A,][A,,A,][A,,A,] | [A,,A,]3 [C,A,]3 [E,G,][E,A,][E,G,] | %2
 [E,G,]3 [A,,A,]2 z [D,A,][D,B,][C,A,] | [B,,G,]3 [A,,A,]3 [B,,F,][B,,B,][=D,B,] | %4
 ([E,-B,]3 [E,G,]2) z | [A,,A,][A,,A,][A,,A,] | [A,,A,]3 [C,A,]3 [F,=A,][F,A,][F,A,] | %7
 [B,,E]3 [B,,D]2 z [E,D][E,E][E,E] | [C,E][B,,G,][A,,A,] [E,-A,]3 [E,G,]2 [E,D] | %9
 [A,,C]3- [A,,C]2 z | [E,G,][E,A,][E,B,] | [E,B,]3 [E,D]3 [E,C][E,B,][E,A,] | %12
 A,3 [A,C]2 z [A,E][A,B,][A,C] | [A,D]3 [A,C]2 z [A,C][G,B,]A, | ([E,-A,]3 [E,G,]2) z | %15
 [A,,A,][A,,A,][A,,A,] | [A,,A,]3 [C,A,]3 [F,=A,][F,A,][F,A,] | [B,,E]3 [B,,D]2 z [E,D][E,E][E,E] | %18
 [C,E][B,,G,][A,,A,] [E,-A,]3 [E,G,]2 [E,D] | [A,,C]3- [A,,C]2 z |] %20
V:3
 x3 | x9 | x9 | x9 | x6 | x3 | x9 | x9 | x9 | x6 | x3 | x9 | A,3 x6 | x8 A, | x6 | x3 | x9 | x9 | %18
 x9 | x6 |] %20

